icons/svg/map-marker.svg

﻿<?xml version="1.0" encoding="utf-8"?>
<!DOCTYPE svg PUBLIC "-//W3C//DTD SVG 1.1//EN" "http://www.w3.org/Graphics/SVG/1.1/DTD/svg11.dtd">
<svg xmlns="http://www.w3.org/2000/svg" xmlns:xlink="http://www.w3.org/1999/xlink" version="1.1" baseProfile="full" width="24" height="24" viewBox="0 0 24.00 24.00" enable-background="new 0 0 24.00 24.00" xml:space="preserve">
	<path fill="#000000" fill-opacity="1" stroke-width="0.2" stroke-linejoin="round" d="M 11.9993,11.4981C 10.6193,11.4981 9.4993,10.3791 9.4993,8.99813C 9.4993,7.61715 10.6193,6.49813 11.9993,6.49813C 13.3803,6.49813 14.4993,7.61715 14.4993,8.99813C 14.4993,10.3791 13.3803,11.4981 11.9993,11.4981 Z M 11.9993,1.99813C 8.13431,1.99813 4.99931,5.1321 4.99931,8.99813C 4.99931,14.2481 11.9993,21.9981 11.9993,21.9981C 11.9993,21.9981 18.9993,14.2481 18.9993,8.99813C 18.9993,5.1321 15.8643,1.99813 11.9993,1.99813 Z "/>
</svg>

<svg xmlns="http://www.w3.org/2000/svg" version="1.1" baseProfile="full" width="24" height="24" viewBox="0 0 24.00 24.00" xml:space="preserve"><path fill="#000" fill-opacity="1" stroke-width=".2" stroke-linejoin="round" d="M12 11.498c-1.38 0-2.5-1.12-2.5-2.5s1.12-2.5 2.5-2.5 2.5 1.12 2.5 2.5-1.12 2.5-2.5 2.5zm0-9.5c-3.866 0-7 3.134-7 7 0 5.25 7 13 7 13s7-7.75 7-13c0-3.866-3.136-7-7-7z"/></svg>
